world_stage/files/flags/NPL/rect.svg

<svg height="946.08264" viewBox="0 0 1419.12 946.08264" width="1419.12" xmlns="http://www.w3.org/2000/svg" xmlns:xlink="http://www.w3.org/1999/xlink"><clipPath id="a"><path d="m0 709.562h1064.343v-709.562h-1064.343z" transform="translate(-313.73521 -472.63971)"/></clipPath><clipPath id="b"><path d="m0 709.562h1064.343v-709.562h-1064.343z" transform="translate(-446.95681 -430.33161)"/></clipPath><clipPath id="c"><path d="m0 709.562h1064.343v-709.562h-1064.343z" transform="translate(-420.84011 -469.42191)"/></clipPath><clipPath id="d"><path d="m0 709.562h1064.343v-709.562h-1064.343z" transform="translate(-434.56721 -460.24961)"/></clipPath><clipPath id="e"><path d="m0 709.562h1064.343v-709.562h-1064.343z" transform="translate(-443.73911 -446.52301)"/></clipPath><clipPath id="f"><path d="m0 709.562h1064.343v-709.562h-1064.343z" transform="translate(-446.95681 -430.33161)"/></clipPath><clipPath id="g"><path d="m0 709.562h1064.343v-709.562h-1064.343z" transform="translate(-443.73911 -414.14361)"/></clipPath><clipPath id="h"><path d="m0 709.562h1064.343v-709.562h-1064.343z" transform="translate(-434.56721 -400.41801)"/></clipPath><clipPath id="i"><path d="m0 709.562h1064.343v-709.562h-1064.343z" transform="translate(-388.46121 -469.42191)"/></clipPath><clipPath id="j"><path d="m0 709.562h1064.343v-709.562h-1064.343z" transform="translate(-374.73521 -460.24961)"/></clipPath><clipPath id="k"><path d="m0 709.562h1064.343v-709.562h-1064.343z" transform="translate(-365.56281 -446.52301)"/></clipPath><clipPath id="l"><path d="m0 709.562h1064.343v-709.562h-1064.343z" transform="translate(-362.34411 -430.33161)"/></clipPath><clipPath id="m"><path d="m0 709.562h1064.343v-709.562h-1064.343z" transform="translate(-365.56281 -414.14361)"/></clipPath><clipPath id="n"><path d="m0 709.562h1064.343v-709.562h-1064.343z" transform="translate(-374.73521 -400.41801)"/></clipPath><clipPath id="o"><path d="m0 709.562h1064.343v-709.562h-1064.343z" transform="translate(-466.60191 -204.0582)"/></clipPath><clipPath id="p"><path d="m0 709.562h1064.343v-709.562h-1064.343z" transform="translate(-420.68391 -144.2183)"/></clipPath><clipPath id="q"><path d="m0 709.562h1064.343v-709.562h-1064.343z" transform="translate(-388.61411 -263.9019)"/></clipPath><clipPath id="r"><path d="m0 709.562h1064.343v-709.562h-1064.343z" transform="translate(-344.80891 -188.02691)"/></clipPath><clipPath id="s"><path d="m0 709.562h1064.343v-709.562h-1064.343z" transform="translate(-464.49201 -220.09331)"/></clipPath><clipPath id="t"><path d="m0 709.562h1064.343v-709.562h-1064.343z" transform="translate(-388.61411 -144.2183)"/></clipPath><clipPath id="u"><path d="m0 709.562h1064.343v-709.562h-1064.343z" transform="translate(-420.68391 -263.9019)"/></clipPath><clipPath id="v"><path d="m0 709.562h1064.343v-709.562h-1064.343z" transform="translate(-344.80891 -220.09331)"/></clipPath><clipPath id="w"><path d="m0 709.562h1064.343v-709.562h-1064.343z" transform="translate(-464.49201 -188.02691)"/></clipPath><clipPath id="x"><path d="m0 709.562h1064.343v-709.562h-1064.343z" transform="translate(-360.84411 -160.25351)"/></clipPath><clipPath id="y"><path d="m0 709.562h1064.343v-709.562h-1064.343z" transform="translate(-448.45681 -247.86681)"/></clipPath><clipPath id="z"><path d="m0 709.562h1064.343v-709.562h-1064.343z" transform="translate(-360.84411 -247.86681)"/></clipPath><clipPath id="A"><path d="m0 709.562h1064.343v-709.562h-1064.343z" transform="translate(-448.45681 -160.25351)"/></clipPath><path d="m0 0h1064.342v709.562h-1064.342z" fill="#fff" transform="matrix(1.3333333 0 0 -1.3333333 0 946.08267)"/><path d="m0 0h456.468l-456.468 285.852v-608.622h456.468l-456.468 456.465z" fill="#dc143c" stroke="#003893" stroke-width="39.292" transform="matrix(1.3333333 0 0 -1.3333333 387.376 458.8228)"/><path d="m0 0h456.468l-456.468 285.852v-608.622h456.468l-456.468 456.465z" fill="#dc143c" transform="matrix(1.3333333 0 0 -1.3333333 387.376 458.8228)"/><g fill="#fff"><path clip-path="url(#a)" d="m0 0c14.687-37.375 50.757-61.953 90.914-61.953 40.16 0 76.226 24.578 90.918 61.953 0-50.211-40.707-90.914-90.918-90.914s-90.914 40.703-90.914 90.914" transform="matrix(1.3333333 0 0 -1.3333333 418.3136 315.8964)"/><path clip-path="url(#b)" d="m0 0c0-23.363-18.941-42.305-42.308-42.305-23.364 0-42.305 18.942-42.305 42.305 0 23.367 18.941 42.308 42.305 42.308 23.367 0 42.308-18.941 42.308-42.308" transform="matrix(1.3333333 0 0 -1.3333333 595.9424 372.3072)"/><path clip-path="url(#c)" d="m0 0-4.726 18.539-11.465-15.321" transform="matrix(1.3333333 0 0 -1.3333333 561.12013 320.1868)"/><path clip-path="url(#d)" d="m0 0 2.726 18.937-16.453-9.765" transform="matrix(1.3333333 0 0 -1.3333333 579.42293 332.41653)"/><path clip-path="url(#e)" d="m0 0 9.765 16.453-18.937-2.726" transform="matrix(1.3333333 0 0 -1.3333333 591.65213 350.71867)"/><path clip-path="url(#f)" d="m0 0 15.321 11.465-18.539 4.726" transform="matrix(1.3333333 0 0 -1.3333333 595.9424 372.3072)"/><path clip-path="url(#g)" d="m0 0 18.539 4.727-15.321 11.461" transform="matrix(1.3333333 0 0 -1.3333333 591.65213 393.8912)"/><path clip-path="url(#h)" d="m0 0 18.937-2.727-9.765 16.453" transform="matrix(1.3333333 0 0 -1.3333333 579.42293 412.192)"/><path clip-path="url(#i)" d="m0 0 4.727 18.539 11.461-15.321" transform="matrix(1.3333333 0 0 -1.3333333 517.94827 320.1868)"/><path clip-path="url(#j)" d="m0 0-2.727 18.937 16.453-9.765" transform="matrix(1.3333333 0 0 -1.3333333 499.64693 332.41653)"/><path clip-path="url(#k)" d="m0 0-9.766 16.453 18.938-2.726" transform="matrix(1.3333333 0 0 -1.3333333 487.41707 350.71867)"/><path clip-path="url(#l)" d="m0 0-15.32 11.465 18.539 4.726" transform="matrix(1.3333333 0 0 -1.3333333 483.12547 372.3072)"/><path clip-path="url(#m)" d="m0 0-18.539 4.727 15.32 11.461" transform="matrix(1.3333333 0 0 -1.3333333 487.41707 393.8912)"/><path clip-path="url(#n)" d="m0 0-18.938-2.727 9.766 16.453" transform="matrix(1.3333333 0 0 -1.3333333 499.64693 412.192)"/><path clip-path="url(#o)" d="m0 0c0-34.215-27.735-61.953-61.953-61.953-34.215 0-61.953 27.738-61.953 61.953 0 34.219 27.738 61.953 61.953 61.953 34.218 0 61.953-27.734 61.953-61.953" transform="matrix(1.3333333 0 0 -1.3333333 622.13587 674.00507)"/><path clip-path="url(#p)" d="m0 0-16.035-37.844-16.035 37.844" transform="matrix(1.3333333 0 0 -1.3333333 560.91187 753.7916)"/><path clip-path="url(#q)" d="m0 0 16.035 37.844 16.035-37.844" transform="matrix(1.3333333 0 0 -1.3333333 518.15213 594.21347)"/><path clip-path="url(#r)" d="m0 0-37.844 16.031 37.844 16.035" transform="matrix(1.3333333 0 0 -1.3333333 459.7452 695.38013)"/><path clip-path="url(#s)" d="m0 0 37.844-16.035-37.844-16.031" transform="matrix(1.3333333 0 0 -1.3333333 619.32267 652.62493)"/><path clip-path="url(#t)" d="m0 0-32.805-24.758 5.035 40.793" transform="matrix(1.3333333 0 0 -1.3333333 518.15213 753.7916)"/><path clip-path="url(#u)" d="m0 0 32.808 24.754-5.035-40.789" transform="matrix(1.3333333 0 0 -1.3333333 560.91187 594.21347)"/><path clip-path="url(#v)" d="m0 0-24.758 32.809 40.793-5.036" transform="matrix(1.3333333 0 0 -1.3333333 459.7452 652.62493)"/><path clip-path="url(#w)" d="m0 0 24.754-32.808-40.789 5.035" transform="matrix(1.3333333 0 0 -1.3333333 619.32267 695.38013)"/><path clip-path="url(#x)" d="m0 0-40.793-5.034 24.758 32.807" transform="matrix(1.3333333 0 0 -1.3333333 481.12547 732.41133)"/><path clip-path="url(#y)" d="m0 0 40.789 5.035-24.754-32.808" transform="matrix(1.3333333 0 0 -1.3333333 597.9424 615.5936)"/><path clip-path="url(#z)" d="m0 0-5.035 40.789 32.805-24.754" transform="matrix(1.3333333 0 0 -1.3333333 481.12547 615.5936)"/><path clip-path="url(#A)" d="m0 0 5.035-40.793-32.808 24.758" transform="matrix(1.3333333 0 0 -1.3333333 597.9424 732.41133)"/></g></svg>

<?xml version="1.0" encoding="UTF-8" standalone="no"?>
<svg
   height="1000"
   viewBox="0 0 1500 999.99999"
   width="1500"
   version="1.1"
   id="svg57"
   sodipodi:docname="rect.svg"
   inkscape:version="1.4 (e7c3feb1, 2024-10-09)"
   xmlns:inkscape="http://www.inkscape.org/namespaces/inkscape"
   xmlns:sodipodi="http://sodipodi.sourceforge.net/DTD/sodipodi-0.dtd"
   xmlns="http://www.w3.org/2000/svg"
   xmlns:svg="http://www.w3.org/2000/svg">
  <defs
     id="defs57" />
  <sodipodi:namedview
     id="namedview57"
     pagecolor="#ffffff"
     bordercolor="#000000"
     borderopacity="0.25"
     inkscape:showpageshadow="2"
     inkscape:pageopacity="0.0"
     inkscape:pagecheckerboard="0"
     inkscape:deskcolor="#d1d1d1"
     inkscape:current-layer="svg57" />
  <clipPath
     id="a">
    <path
       d="M 0,709.562 H 1064.343 V 0 H 0 Z"
       transform="translate(-313.73521,-472.63971)"
       id="path1" />
  </clipPath>
  <clipPath
     id="b">
    <path
       d="M 0,709.562 H 1064.343 V 0 H 0 Z"
       transform="translate(-446.95681,-430.33161)"
       id="path2" />
  </clipPath>
  <clipPath
     id="c">
    <path
       d="M 0,709.562 H 1064.343 V 0 H 0 Z"
       transform="translate(-420.84011,-469.42191)"
       id="path3" />
  </clipPath>
  <clipPath
     id="d">
    <path
       d="M 0,709.562 H 1064.343 V 0 H 0 Z"
       transform="translate(-434.56721,-460.24961)"
       id="path4" />
  </clipPath>
  <clipPath
     id="e">
    <path
       d="M 0,709.562 H 1064.343 V 0 H 0 Z"
       transform="translate(-443.73911,-446.52301)"
       id="path5" />
  </clipPath>
  <clipPath
     id="f">
    <path
       d="M 0,709.562 H 1064.343 V 0 H 0 Z"
       transform="translate(-446.95681,-430.33161)"
       id="path6" />
  </clipPath>
  <clipPath
     id="g">
    <path
       d="M 0,709.562 H 1064.343 V 0 H 0 Z"
       transform="translate(-443.73911,-414.14361)"
       id="path7" />
  </clipPath>
  <clipPath
     id="h">
    <path
       d="M 0,709.562 H 1064.343 V 0 H 0 Z"
       transform="translate(-434.56721,-400.41801)"
       id="path8" />
  </clipPath>
  <clipPath
     id="i">
    <path
       d="M 0,709.562 H 1064.343 V 0 H 0 Z"
       transform="translate(-388.46121,-469.42191)"
       id="path9" />
  </clipPath>
  <clipPath
     id="j">
    <path
       d="M 0,709.562 H 1064.343 V 0 H 0 Z"
       transform="translate(-374.73521,-460.24961)"
       id="path10" />
  </clipPath>
  <clipPath
     id="k">
    <path
       d="M 0,709.562 H 1064.343 V 0 H 0 Z"
       transform="translate(-365.56281,-446.52301)"
       id="path11" />
  </clipPath>
  <clipPath
     id="l">
    <path
       d="M 0,709.562 H 1064.343 V 0 H 0 Z"
       transform="translate(-362.34411,-430.33161)"
       id="path12" />
  </clipPath>
  <clipPath
     id="m">
    <path
       d="M 0,709.562 H 1064.343 V 0 H 0 Z"
       transform="translate(-365.56281,-414.14361)"
       id="path13" />
  </clipPath>
  <clipPath
     id="n">
    <path
       d="M 0,709.562 H 1064.343 V 0 H 0 Z"
       transform="translate(-374.73521,-400.41801)"
       id="path14" />
  </clipPath>
  <clipPath
     id="o">
    <path
       d="M 0,709.562 H 1064.343 V 0 H 0 Z"
       transform="translate(-466.60191,-204.0582)"
       id="path15" />
  </clipPath>
  <clipPath
     id="p">
    <path
       d="M 0,709.562 H 1064.343 V 0 H 0 Z"
       transform="translate(-420.68391,-144.2183)"
       id="path16" />
  </clipPath>
  <clipPath
     id="q">
    <path
       d="M 0,709.562 H 1064.343 V 0 H 0 Z"
       transform="translate(-388.61411,-263.9019)"
       id="path17" />
  </clipPath>
  <clipPath
     id="r">
    <path
       d="M 0,709.562 H 1064.343 V 0 H 0 Z"
       transform="translate(-344.80891,-188.02691)"
       id="path18" />
  </clipPath>
  <clipPath
     id="s">
    <path
       d="M 0,709.562 H 1064.343 V 0 H 0 Z"
       transform="translate(-464.49201,-220.09331)"
       id="path19" />
  </clipPath>
  <clipPath
     id="t">
    <path
       d="M 0,709.562 H 1064.343 V 0 H 0 Z"
       transform="translate(-388.61411,-144.2183)"
       id="path20" />
  </clipPath>
  <clipPath
     id="u">
    <path
       d="M 0,709.562 H 1064.343 V 0 H 0 Z"
       transform="translate(-420.68391,-263.9019)"
       id="path21" />
  </clipPath>
  <clipPath
     id="v">
    <path
       d="M 0,709.562 H 1064.343 V 0 H 0 Z"
       transform="translate(-344.80891,-220.09331)"
       id="path22" />
  </clipPath>
  <clipPath
     id="w">
    <path
       d="M 0,709.562 H 1064.343 V 0 H 0 Z"
       transform="translate(-464.49201,-188.02691)"
       id="path23" />
  </clipPath>
  <clipPath
     id="x">
    <path
       d="M 0,709.562 H 1064.343 V 0 H 0 Z"
       transform="translate(-360.84411,-160.25351)"
       id="path24" />
  </clipPath>
  <clipPath
     id="y">
    <path
       d="M 0,709.562 H 1064.343 V 0 H 0 Z"
       transform="translate(-448.45681,-247.86681)"
       id="path25" />
  </clipPath>
  <clipPath
     id="z">
    <path
       d="M 0,709.562 H 1064.343 V 0 H 0 Z"
       transform="translate(-360.84411,-247.86681)"
       id="path26" />
  </clipPath>
  <clipPath
     id="A">
    <path
       d="M 0,709.562 H 1064.343 V 0 H 0 Z"
       transform="translate(-448.45681,-160.25351)"
       id="path27" />
  </clipPath>
  <path
     d="M 0,946.08267 H 1419.1226 V 2.69854e-5 H 0 Z"
     fill="#ffffff"
     id="path28"
     style="stroke-width:1.33333" />
  <g
     id="g58"
     transform="matrix(1.1299417,0,0,1.1299417,-408.11383,-34.323118)">
    <path
       d="M 0,0 H 456.468 L 0,285.852 V -322.77 H 456.468 L 0,133.695 Z"
       fill="#dc143c"
       stroke="#003893"
       stroke-width="39.292"
       transform="matrix(1.3333333,0,0,-1.3333333,387.376,458.8228)"
       id="path29" />
    <path
       d="M 0,0 H 456.468 L 0,285.852 V -322.77 H 456.468 L 0,133.695 Z"
       fill="#dc143c"
       transform="matrix(1.3333333,0,0,-1.3333333,387.376,458.8228)"
       id="path30" />
    <g
       fill="#ffffff"
       id="g57">
      <path
         clip-path="url(#a)"
         d="m 0,0 c 14.687,-37.375 50.757,-61.953 90.914,-61.953 40.16,0 76.226,24.578 90.918,61.953 0,-50.211 -40.707,-90.914 -90.918,-90.914 C 40.703,-90.914 0,-50.211 0,0"
         transform="matrix(1.3333333,0,0,-1.3333333,418.3136,315.8964)"
         id="path31" />
      <path
         clip-path="url(#b)"
         d="m 0,0 c 0,-23.363 -18.941,-42.305 -42.308,-42.305 -23.364,0 -42.305,18.942 -42.305,42.305 0,23.367 18.941,42.308 42.305,42.308 C -18.941,42.308 0,23.367 0,0"
         transform="matrix(1.3333333,0,0,-1.3333333,595.9424,372.3072)"
         id="path32" />
      <path
         clip-path="url(#c)"
         d="M 0,0 -4.726,18.539 -16.191,3.218"
         transform="matrix(1.3333333,0,0,-1.3333333,561.12013,320.1868)"
         id="path33" />
      <path
         clip-path="url(#d)"
         d="M 0,0 2.726,18.937 -13.727,9.172"
         transform="matrix(1.3333333,0,0,-1.3333333,579.42293,332.41653)"
         id="path34" />
      <path
         clip-path="url(#e)"
         d="M 0,0 9.765,16.453 -9.172,13.727"
         transform="matrix(1.3333333,0,0,-1.3333333,591.65213,350.71867)"
         id="path35" />
      <path
         clip-path="url(#f)"
         d="M 0,0 15.321,11.465 -3.218,16.191"
         transform="matrix(1.3333333,0,0,-1.3333333,595.9424,372.3072)"
         id="path36" />
      <path
         clip-path="url(#g)"
         d="M 0,0 18.539,4.727 3.218,16.188"
         transform="matrix(1.3333333,0,0,-1.3333333,591.65213,393.8912)"
         id="path37" />
      <path
         clip-path="url(#h)"
         d="M 0,0 18.937,-2.727 9.172,13.726"
         transform="matrix(1.3333333,0,0,-1.3333333,579.42293,412.192)"
         id="path38" />
      <path
         clip-path="url(#i)"
         d="M 0,0 4.727,18.539 16.188,3.218"
         transform="matrix(1.3333333,0,0,-1.3333333,517.94827,320.1868)"
         id="path39" />
      <path
         clip-path="url(#j)"
         d="M 0,0 -2.727,18.937 13.726,9.172"
         transform="matrix(1.3333333,0,0,-1.3333333,499.64693,332.41653)"
         id="path40" />
      <path
         clip-path="url(#k)"
         d="M 0,0 -9.766,16.453 9.172,13.727"
         transform="matrix(1.3333333,0,0,-1.3333333,487.41707,350.71867)"
         id="path41" />
      <path
         clip-path="url(#l)"
         d="M 0,0 -15.32,11.465 3.219,16.191"
         transform="matrix(1.3333333,0,0,-1.3333333,483.12547,372.3072)"
         id="path42" />
      <path
         clip-path="url(#m)"
         d="m 0,0 -18.539,4.727 15.32,11.461"
         transform="matrix(1.3333333,0,0,-1.3333333,487.41707,393.8912)"
         id="path43" />
      <path
         clip-path="url(#n)"
         d="m 0,0 -18.938,-2.727 9.766,16.453"
         transform="matrix(1.3333333,0,0,-1.3333333,499.64693,412.192)"
         id="path44" />
      <path
         clip-path="url(#o)"
         d="m 0,0 c 0,-34.215 -27.735,-61.953 -61.953,-61.953 -34.215,0 -61.953,27.738 -61.953,61.953 0,34.219 27.738,61.953 61.953,61.953 C -27.735,61.953 0,34.219 0,0"
         transform="matrix(1.3333333,0,0,-1.3333333,622.13587,674.00507)"
         id="path45" />
      <path
         clip-path="url(#p)"
         d="M 0,0 -16.035,-37.844 -32.07,0"
         transform="matrix(1.3333333,0,0,-1.3333333,560.91187,753.7916)"
         id="path46" />
      <path
         clip-path="url(#q)"
         d="M 0,0 16.035,37.844 32.07,0"
         transform="matrix(1.3333333,0,0,-1.3333333,518.15213,594.21347)"
         id="path47" />
      <path
         clip-path="url(#r)"
         d="M 0,0 -37.844,16.031 0,32.066"
         transform="matrix(1.3333333,0,0,-1.3333333,459.7452,695.38013)"
         id="path48" />
      <path
         clip-path="url(#s)"
         d="M 0,0 37.844,-16.035 0,-32.066"
         transform="matrix(1.3333333,0,0,-1.3333333,619.32267,652.62493)"
         id="path49" />
      <path
         clip-path="url(#t)"
         d="m 0,0 -32.805,-24.758 5.035,40.793"
         transform="matrix(1.3333333,0,0,-1.3333333,518.15213,753.7916)"
         id="path50" />
      <path
         clip-path="url(#u)"
         d="M 0,0 32.808,24.754 27.773,-16.035"
         transform="matrix(1.3333333,0,0,-1.3333333,560.91187,594.21347)"
         id="path51" />
      <path
         clip-path="url(#v)"
         d="M 0,0 -24.758,32.809 16.035,27.773"
         transform="matrix(1.3333333,0,0,-1.3333333,459.7452,652.62493)"
         id="path52" />
      <path
         clip-path="url(#w)"
         d="m 0,0 24.754,-32.808 -40.789,5.035"
         transform="matrix(1.3333333,0,0,-1.3333333,619.32267,695.38013)"
         id="path53" />
      <path
         clip-path="url(#x)"
         d="m 0,0 -40.793,-5.034 24.758,32.807"
         transform="matrix(1.3333333,0,0,-1.3333333,481.12547,732.41133)"
         id="path54" />
      <path
         clip-path="url(#y)"
         d="M 0,0 40.789,5.035 16.035,-27.773"
         transform="matrix(1.3333333,0,0,-1.3333333,597.9424,615.5936)"
         id="path55" />
      <path
         clip-path="url(#z)"
         d="M 0,0 -5.035,40.789 27.77,16.035"
         transform="matrix(1.3333333,0,0,-1.3333333,481.12547,615.5936)"
         id="path56" />
      <path
         clip-path="url(#A)"
         d="m 0,0 5.035,-40.793 -32.808,24.758"
         transform="matrix(1.3333333,0,0,-1.3333333,597.9424,732.41133)"
         id="path57" />
    </g>
  </g>
</svg>
